X: 14
T: The Baltimore Salute
R: reel
M: 4/4
L: 1/8
K: Gmaj
A|B2ge dBGA|BdBG AGEG|D2 GF GA (3Bcd|gedB ABGA|
(3Bcd ge dBGA|BdBG AGEG|DGGF GA (3Bcd|gedB G3:|
|:A|BG G2 dG G2|g2 fg dG G2|DGGA BA (3Bcd|eaag a2ga|
bgab ge e2|g2 fg dB B2|G2 GF dgfe|dBAB G3:|

